!!!!SEGMENT: pl-wtm--r-730-40-m_moniuszko-stanislaw--gdybym-mial-co-ranek.krn
!!!id: 18xx:1720
!!!COM: Moniuszko, Stanisław
!!!COM-rism: pe30008351
!!!CDT: 1819/05/05-1872/06/04
!!!CNT: Polish
!!!OTL: Gdybym miał co ranek
!!!PDT:
!!!SMS-siglum: PL-Wtm
!!!SMS-shelfmark: R 730/40/M
!!!NIFC-rismID: 1001099886
!!!URL-scan: http://repozytorium.nifc.pl/skany/pl-wtm-nut--r730m-1-43
!!!ONB-nifc: Skan 0043, No. 786
!!!SMS-variant:
!!!SMS-altvar:
!!!OMD: Allegro moderato.
**kern	**kern	**kern	**text
*part3	*part2	*part1	*part1
*staff3	*staff2	*staff1	*staff1
*	*I"Fortepian	*I"Głos	*
*	*I'pf	*I'V	*
*clefF4	*clefG2	*clefG2	*
*k[f#]	*k[f#]	*k[f#]	*
*M3/8	*M3/8	*M3/8	*
=1	=1	=1	=1
!	!	!LO:TX:t=P:problem:przy kluczu f#	!
!	!LO:TX:t=P:problem:przy kluczu f#	!LO:TX:a:t=No XXIII.	!
8G/:L 8D/: 8GG:/	8g/:L 8d/: 8B:/	16d/	Gdy-
.	.	16g/	-bym
8G/: 8D/: 8GG:/	8g/: 8d/: 8B:/	16g/	miał
.	.	16f#/	co
8G/:J 8D/: 8GG:/	8g/:J 8d/: 8B:/	16g/	ra-
.	.	16a/	-nek
=2	=2	=2	=2
*tremolo	*tremolo	*	*
8G/:L 8D/: 8GG:/	8g/:L 8d/: 8B:/	16b/	mio-
.	.	16b/	-du
8G/: 8D/: 8GG:/	8g/: 8d/: 8B:/	16b/	spo-
.	.	16a/	-ry
8G/:J 8D/: 8GG:/	8g/:J 8d/: 8B:/	16g/	dzba-
.	.	16b/	-nek,
=3	=3	=3	=3
8F#/:L 8D/: 8GG:/	8a/:L 8d/: 8c:/	16a/	i
!	!	!LO:TX:t=P:problem:all\right:global	!
.	.	16dd\	ty-
8F#/: 8D/: 8GG:/	8a/: 8d/: 8c:/	16dd\	-to-
.	.	16dd\	-niu
8F#/:J 8D/: 8GG:/	8a/:J 8d/: 8c:/	16dd\	lul-
.	.	16cc\	-ka,
=4	=4	=4	=4
8G/:L 8D/: 8GG:/	8g/:L 8d/: 8B:/	16b/	ła-
.	.	16a/	-dna
8G/: 8D/: 8GG:/	8g/: 8d/: 8B:/	16g/	też
.	.	16f#/	żo-
8G/:J 8D/: 8GG:/	8g/:J 8d/: 8B:/	16g/	-nul-
.	.	16b/	-ka.
*Xtremolo	*Xtremolo	*	*
=5	=5	=5	=5
!LO:TX:t=P:problem:all\right:global	!	!	!
4AA\	8r	16a/	Mio-
.	.	16ee\	-dek
.	8g/L 8c/ 8A</ 8E</	8ee\	bym
8r	8g/J 8c/ 8A</ 8E</	8ff#\	ja
=6	=6	=6	=6
4D\	8r	4dd\	ły-
.	8f#/L 8d/ 8A</ 8F#</	.	.
8r	8f#/J 8d/ 8A</ 8F#</	8a/	-kał
!!LO:PB:g=original
=7	=7	=7	=7
4AA\	8r	16a/	i
.	.	16ee\	fa-
.	8e/L 8c/ 8G</	8ee\	-iecz-
8r	8e/J 8c/ 8G</	16ff#\LL	-kę
.	.	16ee\JJ	.
=8	=8	=8	=8
!LO:TX:t=P:problem:fermata below	!	!	!
4D\ 4AA\ 4DD;\	4d/ 4A</ 4F#<;/	4dd;\	py-
8r	8r	16a/LL	-kał,
.	.	16b/JJ	.
=9	=9	=9	=9
*tremolo	*tremolo	*	*
8D/:L 8AA/: 8DD:/	8f#/:L 8c/: 8A:/	16cc\	ła-
.	.	16cc\	-dną
8D/: 8AA/: 8DD:/	8f#/: 8c/: 8A:/	16cc\	bym
.	.	16b\	żo-
8D/:J 8AA/: 8DD:/	8f#/:J 8c/: 8A:/	16dd\	-nu-
.	.	16cc\	-lę
*Xtremolo	*Xtremolo	*	*
=10	=10	=10	=10
!LO:TX:t=P:problem:mixed beam	!	!	!
8GG/L	8g/L 8B/ 8G/	16b\	tu-
.	.	16b\	-lił
8G\	8g/ 8B/	16b\	k ser-
.	.	16a/	-cu
8GG/J	8g/J 8d/ 8G/	16g/	czu-
.	.	16b/	-le,
=11	=11	=11	=11
8C/L	8a/L 8e/ 8c/	16a/	tu-
.	.	16ee\	-lił
8D/	8g/ 8d/ 8B/	8.dd\	k ser-
8DD/J	8f#/J 8c/ 8A/	.	.
.	.	16f#/	-cu
=12	=12	=12	=12
!	!LO:TX:t=P:problem:mixed beam	!	!
.	.	(8qa/	.
8GG/L	8g\L 8B\	8g/)	czu-
8GG/J 8GGG/	8gg/J 8g/	8g/	-le.
8r	8r	8r	.
==	==	==	==
*-	*-	*-	*-
!!!system-decoration: {(s1,s2,s3)}
!!!RDF**kern: > = above
!!!RDF**kern: < = below
!!!EED: Leszek Kubiak
!!!EST: 2021-04-21
!!!ENC: Andrzej Kubiczek
!!!END: 2021-04-02
